assets/1. Faces/Face with head-bandage/Color/face_with_head-bandage_color.svg

<svg width="100%" height="100%" viewBox="0 0 32 32" fill="none" xmlns="http://www.w3.org/2000/svg">
<path d="M15.9989 29.9978C25.3333 29.9978 29.9978 23.7303 29.9978 15.9989C29.9978 8.26751 25.3333 2 15.9989 2C6.66443 2 2 8.26751 2 15.9989C2 23.7303 6.66443 29.9978 15.9989 29.9978Z" fill="url(#paint0_radial_6807_5229)"/>
<path d="M15.9989 29.9978C25.3333 29.9978 29.9978 23.7303 29.9978 15.9989C29.9978 8.26751 25.3333 2 15.9989 2C6.66443 2 2 8.26751 2 15.9989C2 23.7303 6.66443 29.9978 15.9989 29.9978Z" fill="url(#paint1_radial_6807_5229)"/>
<path d="M15.9989 29.9978C25.3333 29.9978 29.9978 23.7303 29.9978 15.9989C29.9978 8.26751 25.3333 2 15.9989 2C6.66443 2 2 8.26751 2 15.9989C2 23.7303 6.66443 29.9978 15.9989 29.9978Z" fill="url(#paint2_radial_6807_5229)"/>
<path d="M15.9989 29.9978C25.3333 29.9978 29.9978 23.7303 29.9978 15.9989C29.9978 8.26751 25.3333 2 15.9989 2C6.66443 2 2 8.26751 2 15.9989C2 23.7303 6.66443 29.9978 15.9989 29.9978Z" fill="url(#paint3_radial_6807_5229)" fill-opacity="0.6"/>
<path d="M15.9989 29.9978C25.3333 29.9978 29.9978 23.7303 29.9978 15.9989C29.9978 8.26751 25.3333 2 15.9989 2C6.66443 2 2 8.26751 2 15.9989C2 23.7303 6.66443 29.9978 15.9989 29.9978Z" fill="url(#paint4_radial_6807_5229)"/>
<path d="M15.9989 29.9978C25.3333 29.9978 29.9978 23.7303 29.9978 15.9989C29.9978 8.26751 25.3333 2 15.9989 2C6.66443 2 2 8.26751 2 15.9989C2 23.7303 6.66443 29.9978 15.9989 29.9978Z" fill="url(#paint5_radial_6807_5229)"/>
<path d="M15.9989 29.9978C25.3333 29.9978 29.9978 23.7303 29.9978 15.9989C29.9978 8.26751 25.3333 2 15.9989 2C6.66443 2 2 8.26751 2 15.9989C2 23.7303 6.66443 29.9978 15.9989 29.9978Z" fill="url(#paint6_radial_6807_5229)"/>
<path d="M15.9989 29.9978C25.3333 29.9978 29.9978 23.7303 29.9978 15.9989C29.9978 8.26751 25.3333 2 15.9989 2C6.66443 2 2 8.26751 2 15.9989C2 23.7303 6.66443 29.9978 15.9989 29.9978Z" fill="url(#paint7_radial_6807_5229)"/>
<path d="M13 24C15.5 23 17.86 23.97 19 26" stroke="url(#paint8_radial_6807_5229)" stroke-width="2" stroke-miterlimit="10" stroke-linecap="round"/>
<circle cx="21.3125" cy="18.5515" r="4.1875" fill="url(#paint9_radial_6807_5229)"/>
<circle cx="9.375" cy="18.0515" r="4.6875" fill="url(#paint10_radial_6807_5229)"/>
<path d="M29.9978 15.9989C29.9978 23.7302 25.3333 29.9977 15.9989 29.9977C6.66443 29.9977 2 23.7302 2 15.9989C2 15.3215 2.03581 14.6553 2.10742 14.0036C14.586 14.4088 24.6597 7.68363 26.6446 6.26147C28.8803 8.78101 29.9978 12.2146 29.9978 15.9989Z" fill="url(#paint11_radial_6807_5229)" style="mix-blend-mode:multiply"/>
<circle cx="9.01705" cy="18.4205" r="4.6733" fill="url(#paint12_radial_6807_5229)"/>
<circle cx="19.2443" cy="18.9432" r="4.24431" fill="url(#paint13_radial_6807_5229)"/>
<path d="M10.4191 21.2244C12.742 21.2244 14.6251 19.3414 14.6251 17.0185C14.6251 14.6956 12.742 12.8125 10.4191 12.8125C8.09621 12.8125 6.21313 14.6956 6.21313 17.0185C6.21313 19.3414 8.09621 21.2244 10.4191 21.2244Z" fill="white"/>
<path d="M21.5683 21.3011C23.9123 21.3011 25.8126 19.4009 25.8126 17.0568C25.8126 14.7127 23.9123 12.8125 21.5683 12.8125C19.2242 12.8125 17.324 14.7127 17.324 17.0568C17.324 19.4009 19.2242 21.3011 21.5683 21.3011Z" fill="white"/>
<path d="M11 20C12.6569 20 14 18.6569 14 17C14 15.3431 12.6569 14 11 14C9.34315 14 8 15.3431 8 17C8 18.6569 9.34315 20 11 20Z" fill="url(#paint14_linear_6807_5229)"/>
<path d="M21 20C22.6569 20 24 18.6569 24 17C24 15.3431 22.6569 14 21 14C19.3431 14 18 15.3431 18 17C18 18.6569 19.3431 20 21 20Z" fill="url(#paint15_linear_6807_5229)"/>
<path d="M21.5 10.5C21.5 10.5 22 13.5 25.5 13.5" stroke="url(#paint16_radial_6807_5229)" stroke-linecap="round" stroke-linejoin="round"/>
<path d="M2.10742 14.0037C14.586 14.4088 24.6597 7.68366 26.6446 6.2615C24.3127 3.63356 20.7644 2 15.9989 2C7.48228 2 2.8532 7.21736 2.10742 14.0037Z" fill="url(#paint17_radial_6807_5229)"/>
<path d="M2.10742 14.0037C14.586 14.4088 24.6597 7.68366 26.6446 6.2615C24.3127 3.63356 20.7644 2 15.9989 2C7.48228 2 2.8532 7.21736 2.10742 14.0037Z" fill="url(#paint18_radial_6807_5229)"/>
<path d="M26.6446 6.26151C24.6597 7.68367 14.586 14.4088 2.10742 14.0037C2.28289 12.407 2.67331 10.8972 3.27876 9.52176C9.39264 9.90251 17.2742 7.57743 22.1347 3.10437C23.9536 3.84249 25.4569 4.92302 26.6446 6.26151Z" fill="url(#paint19_radial_6807_5229)" fill-opacity="0.5" style="mix-blend-mode:multiply"/>
<path d="M22.1347 3.10435C20.3825 2.39329 18.3372 2 15.9989 2C9.48609 2 5.24668 5.05112 3.27881 9.52175C9.39269 9.9025 17.2742 7.57742 22.1347 3.10435Z" fill="url(#paint20_radial_6807_5229)" fill-opacity="0.75" style="mix-blend-mode:multiply"/>
<path d="M17.1523 6.50678C16.5355 6.8202 15.903 7.1105 15.2593 7.37721C13.9783 6.5324 12.0229 5.90843 10.3438 5.6875C9.34466 5.55603 7.24159 5.41773 6.09912 5.49436C6.49721 5.12072 6.9243 4.77232 7.38039 4.45152C8.4817 4.44594 9.83623 4.50706 11.2403 4.6918C13.2789 4.96004 15.4759 5.49555 17.1523 6.50678Z" fill="url(#paint21_radial_6807_5229)"/>
<path d="M17.1523 6.50678C16.5355 6.8202 15.903 7.1105 15.2593 7.37721C13.9783 6.5324 12.0229 5.90843 10.3438 5.6875C9.34466 5.55603 7.24159 5.41773 6.09912 5.49436C6.49721 5.12072 6.9243 4.77232 7.38039 4.45152C8.4817 4.44594 9.83623 4.50706 11.2403 4.6918C13.2789 4.96004 15.4759 5.49555 17.1523 6.50678Z" fill="url(#paint22_radial_6807_5229)" fill-opacity="0.6" style="mix-blend-mode:multiply"/>
<path fill-rule="evenodd" clip-rule="evenodd" d="M15.9989 2C18.3372 2 20.3824 2.39329 22.1347 3.10435C20.6943 4.42995 18.9886 5.5669 17.1421 6.50069C15.467 5.4934 13.2748 4.9595 11.2403 4.6918C9.83622 4.50706 8.48168 4.44594 7.38037 4.45152C9.57907 2.90504 12.4518 2 15.9989 2Z" fill="url(#paint23_radial_6807_5229)"/>
<defs>
<radialGradient id="paint0_radial_6807_5229" cx="0" cy="0" r="1" gradientUnits="userSpaceOnUse" gradientTransform="translate(25.5 9) rotate(132.839) scale(37.5033)">
<stop stop-color="#FFF478"/>
<stop offset="0.474827" stop-color="#FFB02E"/>
<stop offset="1" stop-color="#F70A8D"/>
</radialGradient>
<radialGradient id="paint1_radial_6807_5229" cx="0" cy="0" r="1" gradientUnits="userSpaceOnUse" gradientTransform="translate(25.5 9) rotate(131.878) scale(38.9487)">
<stop stop-color="#FFF478"/>
<stop offset="0.474827" stop-color="#FFB02E"/>
<stop offset="1" stop-color="#F70A8D"/>
</radialGradient>
<radialGradient id="paint2_radial_6807_5229" cx="0" cy="0" r="1" gradientUnits="userSpaceOnUse" gradientTransform="translate(16 12.5) rotate(101.31) scale(17.8466 22.8581)">
<stop offset="0.787821" stop-color="#F59639" stop-opacity="0"/>
<stop offset="0.972509" stop-color="#FF7DCE"/>
</radialGradient>
<radialGradient id="paint3_radial_6807_5229" cx="0" cy="0" r="1" gradientUnits="userSpaceOnUse" gradientTransform="translate(18 14) rotate(135) scale(41.0122)">
<stop offset="0.314853" stop-opacity="0"/>
<stop offset="1"/>
</radialGradient>
<radialGradient id="paint4_radial_6807_5229" cx="0" cy="0" r="1" gradientUnits="userSpaceOnUse" gradientTransform="translate(16 17) rotate(77.692) scale(28.1469)">
<stop offset="0.507903" stop-color="#7D6133" stop-opacity="0"/>
<stop offset="1" stop-color="#715B32"/>
</radialGradient>
<radialGradient id="paint5_radial_6807_5229" cx="0" cy="0" r="1" gradientUnits="userSpaceOnUse" gradientTransform="translate(16.5 16.5) rotate(55.7131) scale(13.3135 9.65032)">
<stop stop-color="#FFB849"/>
<stop offset="1" stop-color="#FFB847" stop-opacity="0"/>
</radialGradient>
<radialGradient id="paint6_radial_6807_5229" cx="0" cy="0" r="1" gradientUnits="userSpaceOnUse" gradientTransform="translate(20.5 18) rotate(9.86581) scale(11.6726)">
<stop stop-color="#FFA64B"/>
<stop offset="0.900412" stop-color="#FFAE46" stop-opacity="0"/>
</radialGradient>
<radialGradient id="paint7_radial_6807_5229" cx="0" cy="0" r="1" gradientUnits="userSpaceOnUse" gradientTransform="translate(17.5 15) rotate(43.9708) scale(59.0529)">
<stop offset="0.185425" stop-opacity="0"/>
<stop offset="1" stop-opacity="0.4"/>
</radialGradient>
<radialGradient id="paint8_radial_6807_5229" cx="0" cy="0" r="1" gradientUnits="userSpaceOnUse" gradientTransform="translate(15.8437 26) rotate(-73.8279) scale(8.1344 14.1808)">
<stop offset="0.15625" stop-color="#362132"/>
<stop offset="0.277843" stop-color="#482641"/>
<stop offset="0.436186" stop-color="#735E62"/>
</radialGradient>
<radialGradient id="paint9_radial_6807_5229" cx="0" cy="0" r="1" gradientUnits="userSpaceOnUse" gradientTransform="translate(21.3125 19.4062) rotate(114.232) scale(3.65472)">
<stop offset="0.15625" stop-color="#FF63C4"/>
<stop offset="1" stop-color="#F59639" stop-opacity="0"/>
</radialGradient>
<radialGradient id="paint10_radial_6807_5229" cx="0" cy="0" r="1" gradientUnits="userSpaceOnUse" gradientTransform="translate(9.375 18.0515) rotate(119.074) scale(4.75117 5.96977)">
<stop offset="0.161458" stop-color="#B6632A"/>
<stop offset="0.161558" stop-color="#B6632A"/>
<stop offset="1" stop-color="#F59639" stop-opacity="0"/>
</radialGradient>
<radialGradient id="paint11_radial_6807_5229" cx="0" cy="0" r="1" gradientUnits="userSpaceOnUse" gradientTransform="translate(8.5625 8.18748) rotate(71.9165) scale(12.8865 36.8357)">
<stop offset="0.150892" stop-color="#CB5C10"/>
<stop offset="0.659014" stop-color="#CB5C10" stop-opacity="0"/>
</radialGradient>
<radialGradient id="paint12_radial_6807_5229" cx="0" cy="0" r="1" gradientUnits="userSpaceOnUse" gradientTransform="translate(12.6518 14.7857) rotate(135) scale(9.10579 4.71285)">
<stop stop-color="#392108"/>
<stop offset="1" stop-color="#C87928" stop-opacity="0"/>
</radialGradient>
<radialGradient id="paint13_radial_6807_5229" cx="0" cy="0" r="1" gradientUnits="userSpaceOnUse" gradientTransform="translate(22.5454 15.642) rotate(135) scale(7.66968 4.32966)">
<stop stop-color="#392108"/>
<stop offset="1" stop-color="#C87928" stop-opacity="0"/>
</radialGradient>
<linearGradient id="paint14_linear_6807_5229" x1="16.5" y1="13" x2="15.5" y2="20" gradientUnits="userSpaceOnUse">
<stop stop-color="#553B3E"/>
<stop offset="1" stop-color="#3D2432"/>
</linearGradient>
<linearGradient id="paint15_linear_6807_5229" x1="16.5" y1="13" x2="15.5" y2="20" gradientUnits="userSpaceOnUse">
<stop stop-color="#553B3E"/>
<stop offset="1" stop-color="#3D2432"/>
</linearGradient>
<radialGradient id="paint16_radial_6807_5229" cx="0" cy="0" r="1" gradientUnits="userSpaceOnUse" gradientTransform="translate(23.8594 11.9062) rotate(130.119) scale(4.02522 9.57068)">
<stop offset="0.137915" stop-color="#694F62"/>
<stop offset="0.398102" stop-color="#482641"/>
</radialGradient>
<radialGradient id="paint17_radial_6807_5229" cx="0" cy="0" r="1" gradientUnits="userSpaceOnUse" gradientTransform="translate(22 5) rotate(155.556) scale(18.1246 36.995)">
<stop stop-color="#FFFEFF"/>
<stop offset="1" stop-color="#DEB6D4"/>
</radialGradient>
<radialGradient id="paint18_radial_6807_5229" cx="0" cy="0" r="1" gradientUnits="userSpaceOnUse" gradientTransform="translate(14.376 13.25) rotate(-99.9558) scale(10.8509 19.1791)">
<stop offset="0.80322" stop-color="#D4CDCC" stop-opacity="0"/>
<stop offset="1" stop-color="#D4CDCC"/>
</radialGradient>
<radialGradient id="paint19_radial_6807_5229" cx="0" cy="0" r="1" gradientUnits="userSpaceOnUse" gradientTransform="translate(11.6875 1.56251) rotate(80.8702) scale(7.09011 14.2551)">
<stop offset="0.841564" stop-color="#BEBAB9"/>
<stop offset="1" stop-color="#D4CDCC" stop-opacity="0"/>
</radialGradient>
<radialGradient id="paint20_radial_6807_5229" cx="0" cy="0" r="1" gradientUnits="userSpaceOnUse" gradientTransform="translate(9.87505 2.75) rotate(73.6105) scale(6.64502 16.7065)">
<stop offset="0.80322" stop-color="#D4CDCC" stop-opacity="0"/>
<stop offset="1" stop-color="#D4CDCC"/>
</radialGradient>
<radialGradient id="paint21_radial_6807_5229" cx="0" cy="0" r="1" gradientUnits="userSpaceOnUse" gradientTransform="translate(13.1251 3.6875) rotate(109.695) scale(4.28172 86.2723)">
<stop stop-color="#C4B0C9"/>
<stop offset="0.546875" stop-color="#C4B0C9" stop-opacity="0"/>
<stop offset="1" stop-color="#C4B0C9" stop-opacity="0"/>
</radialGradient>
<radialGradient id="paint22_radial_6807_5229" cx="0" cy="0" r="1" gradientUnits="userSpaceOnUse" gradientTransform="translate(15.3438 2.625) rotate(113.827) scale(3.36493 22.5105)">
<stop offset="0.841564" stop-color="#BEBAB9"/>
<stop offset="1" stop-color="#D4CDCC" stop-opacity="0"/>
</radialGradient>
<radialGradient id="paint23_radial_6807_5229" cx="0" cy="0" r="1" gradientUnits="userSpaceOnUse" gradientTransform="translate(15.4688 7.03125) rotate(-71.5651) scale(7.41159 27.7885)">
<stop offset="0.0666667" stop-color="#C4B0C9"/>
<stop offset="0.323039" stop-color="#C4B0C9" stop-opacity="0"/>
</radialGradient>
</defs>
</svg>

<svg width="100%" height="100%" viewBox="0 0 32 32" xmlns="http://www.w3.org/2000/svg"><path fill="url(#a)" d="M15.999 29.998c9.334 0 13.999-6.268 13.999-14 0-7.73-4.665-13.998-14-13.998C6.665 2 2 8.268 2 15.999s4.664 13.999 13.999 13.999"/><path fill="url(#b)" d="M15.999 29.998c9.334 0 13.999-6.268 13.999-14 0-7.73-4.665-13.998-14-13.998C6.665 2 2 8.268 2 15.999s4.664 13.999 13.999 13.999"/><path fill="url(#c)" d="M15.999 29.998c9.334 0 13.999-6.268 13.999-14 0-7.73-4.665-13.998-14-13.998C6.665 2 2 8.268 2 15.999s4.664 13.999 13.999 13.999"/><path fill="url(#d)" fill-opacity=".6" d="M15.999 29.998c9.334 0 13.999-6.268 13.999-14 0-7.73-4.665-13.998-14-13.998C6.665 2 2 8.268 2 15.999s4.664 13.999 13.999 13.999"/><path fill="url(#e)" d="M15.999 29.998c9.334 0 13.999-6.268 13.999-14 0-7.73-4.665-13.998-14-13.998C6.665 2 2 8.268 2 15.999s4.664 13.999 13.999 13.999"/><path fill="url(#f)" d="M15.999 29.998c9.334 0 13.999-6.268 13.999-14 0-7.73-4.665-13.998-14-13.998C6.665 2 2 8.268 2 15.999s4.664 13.999 13.999 13.999"/><path fill="url(#g)" d="M15.999 29.998c9.334 0 13.999-6.268 13.999-14 0-7.73-4.665-13.998-14-13.998C6.665 2 2 8.268 2 15.999s4.664 13.999 13.999 13.999"/><path fill="url(#h)" d="M15.999 29.998c9.334 0 13.999-6.268 13.999-14 0-7.73-4.665-13.998-14-13.998C6.665 2 2 8.268 2 15.999s4.664 13.999 13.999 13.999"/><path stroke="url(#i)" stroke-linecap="round" stroke-miterlimit="10" stroke-width="2" d="M13 24c2.5-1 4.86-.03 6 2"/><circle cx="21.313" cy="18.552" r="4.188" fill="url(#j)"/><circle cx="9.375" cy="18.052" r="4.688" fill="url(#k)"/><path fill="url(#l)" d="M29.998 15.999c0 7.731-4.665 13.999-14 13.999C6.665 29.998 2 23.73 2 15.998q0-1.016.107-1.994c12.479.405 22.553-6.32 24.538-7.743 2.235 2.52 3.353 5.954 3.353 9.738" style="mix-blend-mode:multiply"/><circle cx="9.017" cy="18.421" r="4.673" fill="url(#m)"/><circle cx="19.244" cy="18.943" r="4.244" fill="url(#n)"/><path fill="#fff" d="M10.42 21.224a4.206 4.206 0 1 0 0-8.411 4.206 4.206 0 0 0 0 8.411M21.568 21.301a4.244 4.244 0 1 0 0-8.489 4.244 4.244 0 0 0 0 8.49"/><path fill="url(#o)" d="M11 20a3 3 0 1 0 0-6 3 3 0 0 0 0 6"/><path fill="url(#p)" d="M21 20a3 3 0 1 0 0-6 3 3 0 0 0 0 6"/><path stroke="url(#q)" stroke-linecap="round" stroke-linejoin="round" d="M21.5 10.5s.5 3 4 3"/><path fill="url(#r)" d="M2.107 14.004c12.479.405 22.553-6.32 24.538-7.742C24.313 3.633 20.765 2 15.999 2 7.482 2 2.853 7.217 2.107 14.004"/><path fill="url(#s)" d="M2.107 14.004c12.479.405 22.553-6.32 24.538-7.742C24.313 3.633 20.765 2 15.999 2 7.482 2 2.853 7.217 2.107 14.004"/><path fill="url(#t)" fill-opacity=".5" d="M26.645 6.262c-1.985 1.422-12.059 8.147-24.538 7.742.176-1.597.566-3.107 1.172-4.482 6.114.38 13.995-1.945 18.856-6.418 1.819.738 3.322 1.819 4.51 3.158" style="mix-blend-mode:multiply"/><path fill="url(#u)" fill-opacity=".75" d="M22.135 3.104C20.382 2.394 18.337 2 15.999 2 9.486 2 5.247 5.051 3.279 9.522c6.114.38 13.995-1.945 18.856-6.418" style="mix-blend-mode:multiply"/><path fill="url(#v)" d="M17.152 6.507q-.926.47-1.893.87c-1.28-.845-3.236-1.469-4.915-1.69-1-.131-3.102-.27-4.245-.193q.597-.56 1.281-1.042a29 29 0 0 1 3.86.24c2.039.268 4.236.804 5.912 1.815"/><path fill="url(#w)" fill-opacity=".6" d="M17.152 6.507q-.926.47-1.893.87c-1.28-.845-3.236-1.469-4.915-1.69-1-.131-3.102-.27-4.245-.193q.597-.56 1.281-1.042a29 29 0 0 1 3.86.24c2.039.268 4.236.804 5.912 1.815" style="mix-blend-mode:multiply"/><path fill="url(#x)" fill-rule="evenodd" d="M15.999 2c2.338 0 4.383.393 6.136 1.104-1.44 1.326-3.146 2.463-4.993 3.397-1.675-1.008-3.867-1.541-5.902-1.81a29 29 0 0 0-3.86-.24C9.58 2.906 12.452 2 16 2" clip-rule="evenodd"/><defs><radialGradient id="a" cx="0" cy="0" r="1" gradientTransform="rotate(132.839 10.786 10.065)scale(37.5033)" gradientUnits="userSpaceOnUse"><stop stop-color="#FFF478"/><stop offset=".475" stop-color="#FFB02E"/><stop offset="1" stop-color="#F70A8D"/></radialGradient><radialGradient id="b" cx="0" cy="0" r="1" gradientTransform="rotate(131.878 10.74 10.193)scale(38.9487)" gradientUnits="userSpaceOnUse"><stop stop-color="#FFF478"/><stop offset=".475" stop-color="#FFB02E"/><stop offset="1" stop-color="#F70A8D"/></radialGradient><radialGradient id="c" cx="0" cy="0" r="1" gradientTransform="rotate(101.31 2.876 12.808)scale(17.8466 22.8581)" gradientUnits="userSpaceOnUse"><stop offset=".788" stop-color="#F59639" stop-opacity="0"/><stop offset=".973" stop-color="#FF7DCE"/></radialGradient><radialGradient id="d" cx="0" cy="0" r="1" gradientTransform="matrix(-29 29 -29 -29 18 14)" gradientUnits="userSpaceOnUse"><stop offset=".315" stop-opacity="0"/><stop offset="1"/></radialGradient><radialGradient id="e" cx="0" cy="0" r="1" gradientTransform="rotate(77.692 -2.555 18.434)scale(28.1469)" gradientUnits="userSpaceOnUse"><stop offset=".508" stop-color="#7D6133" stop-opacity="0"/><stop offset="1" stop-color="#715B32"/></radialGradient><radialGradient id="f" cx="0" cy="0" r="1" gradientTransform="rotate(55.713 -7.36 23.86)scale(13.3135 9.65032)" gradientUnits="userSpaceOnUse"><stop stop-color="#FFB849"/><stop offset="1" stop-color="#FFB847" stop-opacity="0"/></radialGradient><radialGradient id="g" cx="0" cy="0" r="1" gradientTransform="matrix(11.49998 2 -2 11.49998 20.5 18)" gradientUnits="userSpaceOnUse"><stop stop-color="#FFA64B"/><stop offset=".9" stop-color="#FFAE46" stop-opacity="0"/></radialGradient><radialGradient id="h" cx="0" cy="0" r="1" gradientTransform="rotate(43.971 -9.827 29.173)scale(59.0529)" gradientUnits="userSpaceOnUse"><stop offset=".185" stop-opacity="0"/><stop offset="1" stop-opacity=".4"/></radialGradient><radialGradient id="i" cx="0" cy="0" r="1" gradientTransform="matrix(2.26562 -7.81252 13.61966 3.94969 15.844 26)" gradientUnits="userSpaceOnUse"><stop offset=".156" stop-color="#362132"/><stop offset=".278" stop-color="#482641"/><stop offset=".436" stop-color="#735E62"/></radialGradient><radialGradient id="j" cx="0" cy="0" r="1" gradientTransform="rotate(114.232 4.383 16.593)scale(3.65472)" gradientUnits="userSpaceOnUse"><stop offset=".156" stop-color="#FF63C4"/><stop offset="1" stop-color="#F59639" stop-opacity="0"/></radialGradient><radialGradient id="k" cx="0" cy="0" r="1" gradientTransform="rotate(119.074 -.621 11.783)scale(4.75117 5.96977)" gradientUnits="userSpaceOnUse"><stop offset=".161" stop-color="#B6632A"/><stop offset=".162" stop-color="#B6632A"/><stop offset="1" stop-color="#F59639" stop-opacity="0"/></radialGradient><radialGradient id="l" cx="0" cy="0" r="1" gradientTransform="matrix(4 12.24997 -35.0162 11.4339 8.563 8.187)" gradientUnits="userSpaceOnUse"><stop offset=".151" stop-color="#CB5C10"/><stop offset=".659" stop-color="#CB5C10" stop-opacity="0"/></radialGradient><radialGradient id="m" cx="0" cy="0" r="1" gradientTransform="rotate(135 3.264 10.013)scale(9.10579 4.71285)" gradientUnits="userSpaceOnUse"><stop stop-color="#392108"/><stop offset="1" stop-color="#C87928" stop-opacity="0"/></radialGradient><radialGradient id="n" cx="0" cy="0" r="1" gradientTransform="rotate(135 8.033 12.49)scale(7.66968 4.32966)" gradientUnits="userSpaceOnUse"><stop stop-color="#392108"/><stop offset="1" stop-color="#C87928" stop-opacity="0"/></radialGradient><radialGradient id="q" cx="0" cy="0" r="1" gradientTransform="rotate(130.119 9.161 11.5)scale(4.02522 9.57068)" gradientUnits="userSpaceOnUse"><stop offset=".138" stop-color="#694F62"/><stop offset=".398" stop-color="#482641"/></radialGradient><radialGradient id="r" cx="0" cy="0" r="1" gradientTransform="matrix(-16.50002 7.50003 -15.30867 -33.679 22 5)" gradientUnits="userSpaceOnUse"><stop stop-color="#FFFEFF"/><stop offset="1" stop-color="#DEB6D4"/></radialGradient><radialGradient id="s" cx="0" cy="0" r="1" gradientTransform="matrix(-1.876 -10.6875 18.89029 -3.31584 14.376 13.25)" gradientUnits="userSpaceOnUse"><stop offset=".803" stop-color="#D4CDCC" stop-opacity="0"/><stop offset="1" stop-color="#D4CDCC"/></radialGradient><radialGradient id="t" cx="0" cy="0" r="1" gradientTransform="matrix(1.125 7.00029 -14.0745 2.26188 11.688 1.563)" gradientUnits="userSpaceOnUse"><stop offset=".842" stop-color="#BEBAB9"/><stop offset="1" stop-color="#D4CDCC" stop-opacity="0"/></radialGradient><radialGradient id="u" cx="0" cy="0" r="1" gradientTransform="matrix(1.875 6.375 -16.02764 4.714 9.875 2.75)" gradientUnits="userSpaceOnUse"><stop offset=".803" stop-color="#D4CDCC" stop-opacity="0"/><stop offset="1" stop-color="#D4CDCC"/></radialGradient><radialGradient id="v" cx="0" cy="0" r="1" gradientTransform="matrix(-1.443 4.03124 -81.22537 -29.0749 13.125 3.688)" gradientUnits="userSpaceOnUse"><stop stop-color="#C4B0C9"/><stop offset=".547" stop-color="#C4B0C9" stop-opacity="0"/><stop offset="1" stop-color="#C4B0C9" stop-opacity="0"/></radialGradient><radialGradient id="w" cx="0" cy="0" r="1" gradientTransform="matrix(-1.35935 3.07813 -20.59192 -9.09371 15.344 2.625)" gradientUnits="userSpaceOnUse"><stop offset=".842" stop-color="#BEBAB9"/><stop offset="1" stop-color="#D4CDCC" stop-opacity="0"/></radialGradient><radialGradient id="x" cx="0" cy="0" r="1" gradientTransform="rotate(-71.565 12.612 -7.215)scale(7.41159 27.7885)" gradientUnits="userSpaceOnUse"><stop offset=".067" stop-color="#C4B0C9"/><stop offset=".323" stop-color="#C4B0C9" stop-opacity="0"/></radialGradient><linearGradient id="o" x1="16.5" x2="15.5" y1="13" y2="20" gradientUnits="userSpaceOnUse"><stop stop-color="#553B3E"/><stop offset="1" stop-color="#3D2432"/></linearGradient><linearGradient id="p" x1="16.5" x2="15.5" y1="13" y2="20" gradientUnits="userSpaceOnUse"><stop stop-color="#553B3E"/><stop offset="1" stop-color="#3D2432"/></linearGradient></defs></svg>
